X: 12552
T: Farewell To London
R: reel
M: 4/4
K: Gmajor
|:GB3 cABA|GABd eBdB|ADFD ADFD|BdCA BdCA|
G2AG FGAF|G2AG ABcA|dg3 fgag|1 fdcA G2GD:|2 fdcA GABc||
|:dg3 fgag|fdBG DGBd|c2ec BDGB|FGAB cABc|
dg3 fgag|fdBG DGBd|c2ec BDGB|1 cAFA GABc:|2 cAFA G2GD||

